activity/activity-turtleart.svg

<?xml version="1.0" ?><!DOCTYPE svg  PUBLIC '-//W3C//DTD SVG 1.1//EN'  'http://www.w3.org/Graphics/SVG/1.1/DTD/svg11.dtd' [
	<!ENTITY stroke_color "#000">
	<!ENTITY fill_color "#eee">
]><svg height="55px" viewBox="0 0 55 55" width="55px" xmlns="http://www.w3.org/2000/svg" xmlns:xlink="http://www.w3.org/1999/xlink" stroke-linecap="round" stroke-linejoin="round" stroke-width="3.5" stroke="&stroke_color;" fill="&fill_color;">
  <path
     d="m 7.6154267,52.249623 0,-49.2348876"
     style="fill:none;stroke:&stroke_color;;stroke-width:4.12671185;stroke-linecap:round" />
  <path
     d="M 8.8769179,5.1948598 C 24.839408,12.267252 32.592618,11.795759 49.467251,5.6663527 c -4.788747,9.9013483 -4.788747,17.4452323 0,27.3465813 -16.418561,5.893661 -23.031594,5.893661 -40.5903331,0 l 0,-27.8180742 z"
     id="path2440"
     style="fill:&fill_color;;stroke:&stroke_color;;stroke-width:2.31858921;stroke-linejoin:round" />
  <g
     transform="matrix(0.29395519,0.36988804,-0.36988804,0.29395519,32.356828,4.6563038)"
     id="g3197"
     style="fill:&fill_color;;stroke:&stroke_color;;stroke-width:3.5;stroke-linecap:round;stroke-linejoin:round">
    <g
       id="g3157">
      <path
         d="m 27.497,48.279 c -0.553,0 -1.099,-0.035 -1.637,-0.1 l 1.388,2.349 1.368,-2.313 c -0.371,0.03 -0.741,0.064 -1.119,0.064 z"
         id="path3159"
         style="fill:&fill_color;;stroke:&stroke_color;;stroke-width:3.5" />
      <g
         id="g3161">
        <path
           d="m 40.16,11.726 c -2.164,0 -3.958,1.555 -4.343,3.607 1.859,1.345 3.457,3.115 4.675,5.208 2.285,-0.172 4.094,-2.061 4.094,-4.39 0,-2.444 -1.982,-4.425 -4.426,-4.425 z"
           id="path3163"
           style="fill:&fill_color;;stroke:&stroke_color;;stroke-width:3.5" />
        <path
           d="m 40.713,39.887 c -1.224,2.232 -2.86,4.131 -4.797,5.556 0.521,1.864 2.213,3.239 4.244,3.239 2.443,0 4.426,-1.98 4.426,-4.424 0,-2.255 -1.693,-4.096 -3.873,-4.371 z"
           id="path3165"
           style="fill:&fill_color;;stroke:&stroke_color;;stroke-width:3.5" />
        <path
           d="m 14.273,39.871 c -2.253,0.206 -4.024,2.079 -4.024,4.387 0,2.443 1.98,4.424 4.424,4.424 2.064,0 3.784,-1.42 4.272,-3.332 -1.883,-1.416 -3.475,-3.289 -4.672,-5.479 z"
           id="path3167"
           style="fill:&fill_color;;stroke:&stroke_color;;stroke-width:3.5" />
        <path
           d="m 19.026,15.437 c -0.343,-2.103 -2.154,-3.711 -4.353,-3.711 -2.444,0 -4.424,1.981 -4.424,4.424 0,2.382 1.886,4.31 4.245,4.406 1.186,-2.043 2.732,-3.784 4.532,-5.119 z"
           id="path3169"
           style="fill:&fill_color;;stroke:&stroke_color;;stroke-width:3.5" />
      </g>
      <path
         d="m 27.497,12.563 c 1.908,0 3.728,0.411 5.418,1.128 0.741,-1.076 1.178,-2.377 1.178,-3.783 0,-3.687 -2.989,-6.677 -6.677,-6.677 -3.687,0 -6.676,2.99 -6.676,6.677 0,1.428 0.452,2.749 1.216,3.834 1.724,-0.749 3.587,-1.179 5.541,-1.179 z"
         id="path3171"
         style="fill:&fill_color;;stroke:&stroke_color;;stroke-width:3.5" />
      <g
         id="g3173">
        <path
           d="m 43.102,30.421 c 0,4.7344 -1.6452,9.2798 -4.5706,12.6275 -2.9254,3.3478 -6.8973,5.2305 -11.0344,5.2305 -4.1371,0 -8.109,-1.8827 -11.0344,-5.2305 -2.9254,-3.3477 -4.5706,-7.8931 -4.5706,-12.6275 0,-9.7966 7.0444,-17.858 15.605,-17.858 8.5606,0 15.605,8.0614 15.605,17.858 z"
           id="path3175"
           style="fill:&fill_color;;stroke:&stroke_color;;stroke-width:3.5" />
      </g>
      <g
         id="g3177">
        <path
           d="m 25.875,33.75 -1.542,-4.625 3.164,-2.587 3.615,2.626 -1.487,4.669 z"
           id="path3179"
           style="fill:&stroke_color;;stroke:none" />
        <path
           d="m 27.501,41.551 c -3.968,-0.16 -5.543,-2.009 -5.543,-2.009 l 3.57,-4.163 4.465,0.168 3.132,4.12 c 0,0 -2.89,1.994 -5.624,1.884 z"
           id="path3181"
           style="fill:&stroke_color;;stroke:none" />
        <path
           d="m 18.453,33.843 c -0.849,-2.968 0.172,-6.884 0.172,-6.884 l 4,2.167 1.493,4.629 -3.582,4.233 c 0,-10e-4 -1.465,-1.99 -2.083,-4.145 z"
           id="path3183"
           style="fill:&stroke_color;;stroke:none" />
        <path
           d="m 19.458,25.125 c 0,0 0.5,-1.958 3.039,-3.822 2.237,-1.643 4.465,-1.72 4.465,-1.72 l -0.037,4.981 -3.521,2.75 -3.946,-2.189 z"
           id="path3185"
           style="fill:&stroke_color;;stroke:none" />
        <path
           d="M 32.084,27.834 28.625,24.959 29,19.75 c 0,0 1.834,-0.042 3.959,1.667 2.228,1.791 3.362,4.983 3.362,4.983 l -4.237,1.434 z"
           id="path3187"
           style="fill:&stroke_color;;stroke:none" />
        <path
           d="m 31.292,34.042 1.313,-4.464 4.187,-1.536 c 0,0 0.677,2.663 -0.042,5.667 -0.54,2.256 -2.084,4.361 -2.084,4.361 l -3.374,-4.028 z"
           id="path3189"
           style="fill:&stroke_color;;stroke:none" />
      </g>
    </g>
  </g>
</svg>

<?xml version="1.0" ?><!DOCTYPE svg  PUBLIC '-//W3C//DTD SVG 1.1//EN'  'http://www.w3.org/Graphics/SVG/1.1/DTD/svg11.dtd' [
	<!ENTITY stroke_color "#000">
	<!ENTITY fill_color "#eee">
]><svg height="55px" viewBox="0 0 55 55" width="55px" xmlns="http://www.w3.org/2000/svg" xmlns:xlink="http://www.w3.org/1999/xlink" stroke-linecap="round" stroke-linejoin="round" stroke-width="3.5" stroke="&stroke_color;" fill="&fill_color;">
 <g>
  <path d="M 27.497 48.279 C 26.944 48.279 26.398 48.244 25.86 48.179 L 27.248 50.528 L 28.616 48.215 C 28.245 48.245 27.875 48.279 27.497 48.279 Z " fill="&fill_color;" stroke="&stroke_color;" stroke-width="3.5"/>
  <g>
   <path d="M 40.16 11.726 C 37.996 11.726 36.202 13.281 35.817 15.333 C 37.676 16.678 39.274 18.448 40.492 20.541 C 42.777 20.369 44.586 18.48 44.586 16.151 C 44.586 13.707 42.604 11.726 40.16 11.726 Z " fill="&fill_color;" stroke="&stroke_color;" stroke-width="3.5"/>
   <path d="M 40.713 39.887 C 39.489 42.119 37.853 44.018 35.916 45.443 C 36.437 47.307 38.129 48.682 40.16 48.682 C 42.603 48.682 44.586 46.702 44.586 44.258 C 44.586 42.003 42.893 40.162 40.713 39.887 Z " fill="&fill_color;" stroke="&stroke_color;" stroke-width="3.5"/>
   <path d="M 14.273 39.871 C 12.02 40.077 10.249 41.95 10.249 44.258 C 10.249 46.701 12.229 48.682 14.673 48.682 C 16.737 48.682 18.457 47.262 18.945 45.35 C 17.062 43.934 15.47 42.061 14.273 39.871 Z " fill="&fill_color;" stroke="&stroke_color;" stroke-width="3.5"/>
   <path d="M 19.026 15.437 C 18.683 13.334 16.872 11.726 14.673 11.726 C 12.229 11.726 10.249 13.707 10.249 16.15 C 10.249 18.532 12.135 20.46 14.494 20.556 C 15.68 18.513 17.226 16.772 19.026 15.437 Z " fill="&fill_color;" stroke="&stroke_color;" stroke-width="3.5"/>
  </g>
  <path d="M 27.497 12.563 C 29.405 12.563 31.225 12.974 32.915 13.691 C 33.656 12.615 34.093 11.314 34.093 9.908 C 34.093 6.221 31.104 3.231 27.416 3.231 C 23.729 3.231 20.74 6.221 20.74 9.908 C 20.74 11.336 21.192 12.657 21.956 13.742 C 23.68 12.993 25.543 12.563 27.497 12.563 Z " fill="&fill_color;" stroke="&stroke_color;" stroke-width="3.5"/>
  <g>
   <path d="M 43.102 30.421 C 43.102 35.1554 41.4568 39.7008 38.5314 43.0485 C 35.606 46.3963 31.6341 48.279 27.497 48.279 C 23.3599 48.279 19.388 46.3963 16.4626 43.0485 C 13.5372 39.7008 11.892 35.1554 11.892 30.421 C 11.892 20.6244 18.9364 12.563 27.497 12.563 C 36.0576 12.563 43.102 20.6244 43.102 30.421 Z " fill="&fill_color;" stroke="&stroke_color;" stroke-width="3.5"/>
  </g>
  <g>
   <path d="M 25.875 33.75 L 24.333 29.125 L 27.497 26.538 L 31.112 29.164 L 29.625 33.833 Z " fill="&stroke_color;" stroke="none" stroke-width="3.5"/>
   <path d="M 27.501 41.551 C 23.533 41.391 21.958 39.542 21.958 39.542 L 25.528 35.379 L 29.993 35.547 L 33.125 39.667 C 33.125 39.667 30.235 41.661 27.501 41.551 Z " fill="&stroke_color;" stroke="none" />
   <path d="M 18.453 33.843 C 17.604 30.875 18.625 26.959 18.625 26.959 L 22.625 29.126 L 24.118 33.755 L 20.536 37.988 C 20.536 37.987 19.071 35.998 18.453 33.843 Z " fill="&stroke_color;" stroke="none" />
   <path d="M 19.458 25.125 C 19.458 25.125 19.958 23.167 22.497 21.303 C 24.734 19.66 26.962 19.583 26.962 19.583 L 26.925 24.564 L 23.404 27.314 L 19.458 25.125 Z " fill="&stroke_color;" stroke="none" />
   <path d="M 32.084 27.834 L 28.625 24.959 L 29 19.75 C 29 19.75 30.834 19.708 32.959 21.417 C 35.187 23.208 36.321 26.4 36.321 26.4 L 32.084 27.834 Z " fill="&stroke_color;" stroke="none" />
   <path d="M 31.292 34.042 L 32.605 29.578 L 36.792 28.042 C 36.792 28.042 37.469 30.705 36.75 33.709 C 36.21 35.965 34.666 38.07 34.666 38.07 L 31.292 34.042 Z " fill="&stroke_color;" stroke="none" />
  </g>
 </g>
</svg>
